X: 264
T: A Memory Of Friends Past
R: waltz
M: 3/4
K: Gmajor
|:[G,2G2] [B,2B2] D2|G2 F2 =F2|E2 ^D2 E2|[C4c4] [B,2B2]|[A,2A2] [B,2B2] [C2c2]|D2 E2 F2|1 G2 D2 [C2c2]|[B,2B2] [C2c2] [A,2A2]:|2 G6-|G2||
D2 G2|B2 ^A2 B2|G2 D2 G2|c2 B2 c2|A4 G2|F2 A2 F2|D2 E2 F2|G2 D2 [C2c2]|[B,2B2] [C2c2] A2|
B2 ^A2 B2|G2 D2 G2|E2 ^D2 E2|[C4c4] [B,2B2]|[A,2A2] [B,2B2] [C2c2]|D2 E2 F2|G6-|G6||
|:G2 B2 d2|g2 f2 =f2|e2 ^d2 e2|c4 B2|A2 B2 c2|d2 e2 f2|1 g2 d2 c2|B2 c2 A2:|2 g6-|g2||
d2 g2|b2 ^a2 b2|g2 d2 B2|[c2c'2] [B2b2] [c2c'2]|a4 g2|f2 a2 f2|d2 e2 f2|g2 d2 c2|B2 c2 d2|
b2 ^a2 b2|g2 d2 G2|e2 ^d2 e2|c4 B2|A2 B2 c2|d2 e2 f2|g2 d2 B2|G6||

